assets/svg/330-DO.svg

<svg xmlns="http://www.w3.org/2000/svg" xmlns:xlink="http://www.w3.org/1999/xlink" width="18.74" height="18.74"><defs><path id="a" d="M0 0h18.74v18.74H0z"/></defs><clipPath id="b"><use xlink:href="#a" overflow="visible"/></clipPath><path d="M0 0h18.74v18.74H0z" clip-path="url(#b)"/><path fill="none" stroke="#fff" stroke-width=".36" d="m8.55 18.74.8-1.6m1.55-3.11 1.57-3.13m3.13-6.25 1.56-3.13M9.35 17.15l1.56-3.12m4.69-9.38-1.57 3.13m-1.56 3.12 1.56-3.12m3.13-6.26L17.92 0M5.43 18.74l.8-1.6m3.12-6.24L7.8 14.03M14.8 0l-.76 1.52M10.9 7.78l1.57-3.13m0 0 1.57-3.13M6.22 17.15l1.57-3.12m3.11-6.25L9.36 10.9m-.01-6.25L7.8 7.78m3.1-6.26L9.36 4.65M6.23 10.9l-1.57 3.13M7.8 7.78 6.22 10.9M11.68 0l-.77 1.52M2.3 18.74l.8-1.6m1.56-3.11L3.1 17.15m-3.12 0L0 17.1m1.54-3.07L0 17.1M8.55 0 7.8 1.52M3.1 10.9l-1.56 3.13m3.13-6.25L3.1 10.9m1.57-3.12 1.56-3.13M7.8 1.52 6.22 4.65M-.02 10.9l.02-.04m0 .01 1.54-3.1M5.43 0l-.76 1.52M3.1 4.65 1.55 7.78m3.12-6.26L3.1 4.65M2.3 0l-.75 1.52M0 4.62l1.55-3.1M-.02 4.65 0 4.62M18.74 17.1l-.02.05m-.79 1.59.8-1.6m-3.13.01 1.56-3.12m1.58-3.16v.03m-3.94 7.84.8-1.6m1.56-3.11 1.57-3.13m-7.05 7.84.8-1.6m0 .01 1.56-3.12m4.7-9.41v.03M15.6 10.9l-1.56 3.13m3.13-6.25 1.56-3.13M15.6 10.9l1.57-3.12m1.57-6.26h-1.58m-3.12 0H10.9m-3.1 0h3.1m6.26 0h-3.12m-12.49 0h3.12M0 1.52h1.55m6.25 0H4.66m4.69 3.13h3.12m-12.49 0H0m3.1 0h3.13m9.37 0h-3.13m-6.24 0h3.12M0 4.65h3.1m15.63 0H15.6M7.8 7.78h3.1m6.27 0h-3.14m0 0H10.9M0 7.78h1.54m0 0h3.13m14.07 0h-1.57m-12.5 0H7.8M-.02 10.9H0m15.6 0h-3.13m0 0H9.35M0 10.9h3.1m15.63 0H15.6m-12.5 0h3.13m0 0h3.12M7.8 14.03h3.1m6.26 0h-3.12M0 14.03h1.54m12.5 0H10.9m-6.24 0H7.8m10.94 0h-1.58m-15.62 0h3.12m-4.68 3.12H0m12.48 0h3.12m-6.25 0h3.13m-6.26 0h3.13m9.37 0H15.6m3.14 0h-.02M0 17.15h3.1m0 0h3.12M0 10.87v.03m18.74-6.25v-.03m0 6.28v-.03M0 4.62v.03m18.74 12.5v-.04M0 17.1v.05" clip-path="url(#b)"/></svg>

<?xml version="1.0"?>
<svg xmlns="http://www.w3.org/2000/svg" xmlns:xlink="http://www.w3.org/1999/xlink" width="18.743" height="18.743">
  <defs>
    <path id="a" d="M0 0h18.74v18.74H0z"/>
  </defs>
  <clipPath id="b">
    <use xlink:href="#a" overflow="visible"/>
  </clipPath>
  <path d="M0 0h18.74v18.74H0z" clip-path="url(#b)"/>
  <path fill="none" stroke="#fff" stroke-width=".36" d="M8.55 18.74l.8-1.6M10.9 14.03l1.57-3.13M15.6 4.65l1.56-3.13M9.35 17.15l1.56-3.12M15.6 4.65l-1.57 3.13M12.47 10.9l1.56-3.12M17.16 1.52L17.92 0M5.43 18.74l.8-1.6M9.35 10.9L7.8 14.03M14.8 0l-.76 1.52M10.9 7.78l1.57-3.13M12.47 4.65l1.57-3.13M6.22 17.15l1.57-3.12M10.9 7.78L9.36 10.9M9.35 4.65L7.8 7.78M10.9 1.52L9.36 4.65M6.23 10.9l-1.57 3.13M7.8 7.78L6.22 10.9M11.68 0l-.77 1.52M2.3 18.74l.8-1.6M4.66 14.03L3.1 17.15M-.02 17.15L0 17.1M1.54 14.03L0 17.1M8.55 0L7.8 1.52M3.1 10.9l-1.56 3.13M4.67 7.78L3.1 10.9M4.67 7.78l1.56-3.13M7.8 1.52L6.22 4.65M-.02 10.9l.02-.04M0 10.87l1.54-3.1M5.43 0l-.76 1.52M3.1 4.65L1.55 7.78M4.67 1.52L3.1 4.65M2.3 0l-.75 1.52M0 4.62l1.55-3.1M-.02 4.65L0 4.62M18.74 17.1l-.02.05M17.93 18.74l.8-1.6M15.6 17.15l1.56-3.12M18.74 10.87v.03M14.8 18.74l.8-1.6M17.16 14.03l1.57-3.13M11.68 18.74l.8-1.6M12.48 17.15l1.56-3.12M18.74 4.62v.03M15.6 10.9l-1.56 3.13M17.17 7.78l1.56-3.13M15.6 10.9l1.57-3.12M18.74 1.52h-1.58M14.04 1.52H10.9M7.8 1.52h3.1M17.16 1.52h-3.12M1.55 1.52h3.12M0 1.52h1.55M7.8 1.52H4.66M9.35 4.65h3.12M-.02 4.65H0M3.1 4.65h3.13M15.6 4.65h-3.13M6.23 4.65h3.12M0 4.65h3.1M18.73 4.65H15.6M18.74 4.65M7.8 7.78h3.1M17.17 7.78h-3.14M14.03 7.78H10.9M0 7.78h1.54M1.54 7.78h3.13M18.74 7.78h-1.57M4.67 7.78H7.8M-.02 10.9H0M15.6 10.9h-3.13M12.47 10.9H9.35M0 10.9h3.1M18.74 10.9M18.73 10.9H15.6M3.1 10.9h3.13M6.23 10.9h3.12M7.8 14.03h3.1M17.16 14.03h-3.12M0 14.03h1.54M14.04 14.03H10.9M4.66 14.03H7.8M18.74 14.03h-1.58M1.54 14.03h3.12M-.02 17.15H0M12.48 17.15h3.12M9.35 17.15h3.13M6.22 17.15h3.13M18.72 17.15H15.6M18.74 17.15h-.02M0 17.15h3.1M3.1 17.15h3.12M0 10.87v.03M18.74 4.65v-.03M18.74 10.9v-.03M0 4.62v.03M18.74 17.15v-.04M0 17.1v.05" clip-path="url(#b)"/>
</svg>
